X:1
T:The Blessèd Book
T:The Blessèd Book
T:Adam Geibel
T:Birdie Bell, 1901
T:Public Domain Courtesy of the Cyber Hymnal™
T:Public Domain Courtesy of the Cyber Hymnal™
C:Adam Geibel
Z:Public Domain
Z:Courtesy of the Cyber Hymnal™
%%score ( 1 2 ) ( 3 4 )
L:1/8
Q:1/4=108
M:4/4
K:G
V:1 treble 
V:2 treble 
V:3 bass 
V:4 bass 
V:1
 [DG][DA] | [GB]2 [GB]2 [FB]2 [FA]2 | [DA]4 [DG]2 [GB][Gc] | [Gd]2 [Gd]2 [Fd]2 [Fc]2 | %4
w: 1.~There’s a|bless- èd Book that’s|giv- en For the|sav- ing of man-|
w: 2.~In this|Book we read of|Je- sus Who once|came to earth to|
w: 3.~Let us|stu- dy it with|pa- tience, Learn to|love it more and|
 [GB]6 [Gc][Gd] | [Ge]2 [Ge]2 [Gc]2 [Ge]2 | [Gd]4 [GB]2 [DG][DA] | [GB]2 [GB]2 [GB]2 [GA]2 | %8
w: kind; All who|read its pre- cious|pag- es May a|price- less trea- sure|
w: save Dy- ing|souls from sin’s do-|min- ion And the|ter- ror of the|
w: more; It will|teach us of the|Sav- ior Whom our|youth- ful hearts a-|
 [FA]6 [DG][DA] | [GB]2 [GB]2 [FB]2 [FA]2 | [DA]4 [DG]2 [GB][Gc] | [Gd]2 [Gd]2 [Fd]2 [Fc]2 | %12
w: find; Rar- er|than the gems which|spark- le In the|mon- arch’s beau- teous|
w: grave; And our|hearts are ne- ver|wea- ry Of the|les- sons which we|
w: dore; If we|heark- en to its|coun- sels, Heed its|pre- cepts true and|
 [GB]6 [Gc][Gd] | [Ge]2 [Ge]2 [Gc]2 [Ge]2 | [Gd]4 [GB]2 [DG][DA] | [GB]2 [EA]2 [DG]2 [DF]2 | %16
w: crown Are the|mes- sag- es of|par- don For the|souls in sin bowed|
w: learn As we|read the sto- ry|o- ver, As the|sac- red leaves we|
w: pure, Then our|foot- steps will not|wan- der From the|path- way safe and|
 [DG]6 ||"^Refrain" [DF][DG] | [FA]2 [FA]2 [FA]2 [FB]2 | ([DG]4 D2) [FA][GB] | %20
w: down.||||
w: turn.|Bless- èd|Book! be thou our|guide; * We would|
w: sure.||||
 [Ac]2 [Ac]2 [Ac]2 [Fd]2 | [GB]6 [GB][Gc] | [Gd]2 [GB]2 [Gc]2 [Gd]2 | [Ge]6 [Ec][EA] | %24
w: ||||
w: walk at Je- sus’|side; Teach us|how to live each|day As we|
w: ||||
 [DG]2 [GB]2 [FA]3 [DG] | [DG]6 |] %26
w: ||
w: tread the nar- row|way.|
w: ||
V:2
 x2 | x8 | x8 | x8 | x8 | x8 | x8 | x8 | x8 | x8 | x8 | x8 | x8 | x8 | x8 | x8 | x6 || x2 | x8 | %19
 x4 D2 x2 | x8 | x8 | x8 | x8 | x8 | x6 |] %26
V:3
 [G,B,][G,C] | [G,D]2 [G,D]2 [D,D]2 [D,C]2 | [G,C]4 [G,B,]2 [G,D][A,D] | %3
 [B,D]2 [B,D]2 [A,D]2 [D,D]2 | [G,D]6 [G,A,][G,B,] | [C,C]2 [C,C]2 [E,C]2 [C,C]2 | %6
 [G,B,]4 [G,D]2 [G,B,][G,C] | [G,D]2 [G,D]2 [A,^C]2 [A,,C]2 | [D,D]6 [G,B,][G,C] | %9
 [G,D]2 [G,D]2 [D,D]2 [D,C]2 | [G,C]4 [G,B,]2 [G,D][A,D] | [B,D]2 [B,D]2 [A,D]2 [D,D]2 | %12
 [G,D]6 [G,A,][G,B,] | [C,C]2 [C,C]2 [E,C]2 [C,C]2 | [G,B,]4 [G,D]2 [G,B,][G,C] | %15
 [G,D]2 [C,C]2 [D,B,]2 [D,A,]2 | [G,B,]6 || [D,A,][D,B,] | [D,C]2 [D,C]2 [D,C]2 [D,D]2 | %19
 [G,B,]6 [D,D][D,D] | [D,D]2 [D,D]2 [D,D]2 [D,D]2 | [G,D]6 [G,D][A,D] | [B,D]2 D2 [E,C]2 [D,B,]2 | %23
 [C,C]6 [C,A,][C,C] | [D,B,]2 [D,D]2 [D,C]3 [G,,B,] | [G,,B,]6 |] %26
V:4
 x2 | x8 | x8 | x8 | x8 | x8 | x8 | x8 | x8 | x8 | x8 | x8 | x8 | x8 | x8 | x8 | x6 || x2 | x8 | %19
 x8 | x8 | x8 | x2 (G,=F,) x4 | x8 | x8 | x6 |] %26

